epam-assets/icon-sources/18/action-eye-off-outline.svg

<svg width="18" height="18" viewBox="0 0 18 18" fill="none" xmlns="http://www.w3.org/2000/svg">
<g id="18/action-eye-off-outline">
<g id="icon">
<path fill-rule="evenodd" clip-rule="evenodd" d="M13.9875 12.975L11.5875 10.5L8.66246 7.575L7.46246 6.45L2.51246 1.5L1.46246 2.55L3.98961 5.07714C1.94655 6.81081 0.75 9 0.75 9C0.75 9 4.02944 15 9 15C10.3975 15 11.6614 14.5257 12.7562 13.8438L15.4875 16.575L16.5375 15.525L13.9875 12.975ZM11.6615 12.749C10.8343 13.212 9.93984 13.5 9 13.5C7.12585 13.5 5.43203 12.3548 4.09269 10.9608C3.44375 10.2853 2.92971 9.60414 2.57779 9.09011C2.55677 9.05941 2.53637 9.02936 2.51658 9C2.53637 8.97064 2.55677 8.94059 2.57779 8.90989C2.92971 8.39586 3.44375 7.71468 4.09269 7.03924C4.39571 6.72386 4.71686 6.42122 5.05415 6.14168L6.96092 8.04845C6.66175 8.69105 6.67016 9.46448 7.05148 10.1249C7.63986 11.144 8.90508 11.5287 9.95149 11.039L11.6615 12.749Z" fill="#6C6F80"/>
<path d="M17.25 9C17.25 9 16.4585 10.4481 15.0639 11.9214L14.0186 10.8435C14.6152 10.207 15.0907 9.57439 15.4222 9.09011C15.4432 9.05941 15.4636 9.02936 15.4834 9C15.4636 8.97064 15.4432 8.94059 15.4222 8.90989C15.0703 8.39586 14.5563 7.71468 13.9073 7.03924C12.568 5.64524 10.8741 4.5 9 4.5C8.58108 4.5 8.17118 4.55722 7.77222 4.66165L6.58523 3.47466C7.33431 3.17879 8.14196 3 9 3C13.9706 3 17.25 9 17.25 9Z" fill="#6C6F80"/>
</g>
</g>
</svg>

<svg xmlns="http://www.w3.org/2000/svg" width="18" height="18" fill="none" viewBox="0 0 18 18">
  <path fill="#6C6F80" fill-rule="evenodd" d="m13.988 12.975-2.4-2.475-2.926-2.925-1.2-1.125-4.95-4.95-1.05 1.05L3.99 5.077C1.947 6.811.75 9 .75 9S4.03 15 9 15c1.398 0 2.661-.474 3.756-1.156l2.732 2.731 1.05-1.05-2.55-2.55Zm-2.326-.226c-.828.463-1.722.751-2.662.751-1.874 0-3.568-1.145-4.907-2.54A14.832 14.832 0 0 1 2.517 9a14.952 14.952 0 0 1 1.576-1.96c.303-.316.624-.619.961-.898l1.907 1.906a2.25 2.25 0 0 0 2.99 2.99l1.71 1.711Z" clip-rule="evenodd"/>
  <path fill="#6C6F80" d="M17.25 9s-.791 1.448-2.186 2.921l-1.045-1.077A14.922 14.922 0 0 0 15.483 9l-.06-.09a14.82 14.82 0 0 0-1.516-1.87C12.568 5.644 10.874 4.5 9 4.5c-.419 0-.829.057-1.228.162L6.585 3.475A6.541 6.541 0 0 1 9 3c4.97 0 8.25 6 8.25 6Z"/>
</svg>
